X: 30244
T: Old John's
R: jig
M: 6/8
K: Adorian
|:B|cAA cAA|GEE GAB|cAA A2 G|Add ded|
cAA cAA|GEE GAB|cde ged|cAA A2-:|
|:A|efg eaa|ged cAA|e2 d eaa|bag a2 g|
efg eaa|ged cAA|cde ged|cAA A2-:|

